X:22602
T:Three Around Three
R:Barndance
B:Tuneworks Tunebook 2 (https://www.tuneworks.co.uk/)
G:Tuneworks
Z:Jon Warbrick <jon.warbrick@googlemail.com>
M:4/4
L:1/8
K:G
|: Bc | "G" d2 BA G2 G2 | "D" A2 BA"G" G2 D2 | "C" EDEF G2 AB | "D" c2 B2 B2 A2 |
"G" d2 BA G2 G2 | "D" A2 BA"G" G2 D2 | "C" EDEF G2 Ac | "D" B2 G2"G" G2 :|
|: Bc | "G" d2 ef gfed | "C" e2 e2 e2 ge | "G" d2 B2 B2 AG | "D" FGAB A2 e2 |
"G" d2 ef gfed | "C" e2 e2 e2 d2 | "C" efge"D" fgaf | "G" g2 g2 g2 :|